src/64x64/places/folder-gruvbox-mix-yellow-torrent.svg

<?xml version="1.0" encoding="UTF-8"?>
<svg width="64" height="64" version="1" xmlns="http://www.w3.org/2000/svg">
 <rect x="4" y="22" width="56" height="36" rx="2.8" ry="2.8" opacity=".2"/>
 <path d="m4 46.2c0 1.551 1.2488 2.8 2.8 2.8h50.4c1.551 0 2.8-1.249 2.8-2.8v-30.4c0-1.551-1.249-2.8-2.8-2.8h-25.2c-4.2 0-5.6-6-9.8-6h-15.4c-1.5512 0-2.8 1.2488-2.8 2.8" fill="#b4730e"/>
 <rect x="4" y="20" width="56" height="36" rx="2.8" ry="2.8" opacity=".2"/>
 <rect x="8" y="16" width="48" height="22" rx="2.8" ry="2.8" fill="#fae7b3"/>
 <rect x="4" y="21" width="56" height="36" rx="2.8" ry="2.8" fill="#e9b143"/>
 <path d="m6.8008 7c-1.5512 0-2.8008 1.2496-2.8008 2.8008v1.0002c0-1.5514 1.2496-2.801 2.8008-2.801h15.398c4.2 0 5.601 6 9.801 6h25.199c1.551 0 2.801 1.25 2.801 2.801v-1c0-1.551-1.25-2.801-2.801-2.801h-25.199c-4.2 0-5.601-6-9.801-6z" fill="#fae7b3" opacity=".1"/>
 <path d="m32 27a12 12 0 0 0-12 12 12 12 0 0 0 12 12h25v-2h-18.381-6.6191a10 10 0 0 1-10-10 10 10 0 0 1 10-10v-2zm0 3c-4.9706 0-9 4.0294-9 9s4.0294 9 9 9h25v-2h-25c-3.866 0-7-3.134-7-7s3.134-7 7-7c1.0385 0.0032 2.0632 0.23733 3 0.68555v-2.1602c-0.96289-0.34429-1.9774-0.52196-3-0.52539zm0 3a6 6 0 0 0-6 6 6 6 0 0 0 6 6h25v-2h-25a4 4 0 0 1-4-4 4 4 0 0 1 4-4 4 4 0 0 1 3.459 2h2.1895a6 6 0 0 0-5.6484-4z" fill="#4f422e"/>
</svg>

<svg xmlns="http://www.w3.org/2000/svg" width="64" height="64" version="1">
 <rect style="opacity:0.2" width="56" height="36" x="4" y="22" rx="2.8" ry="2.8"/>
 <path style="fill:#b4730e" d="M 4,46.2 C 4,47.751 5.2488,49 6.8,49 H 57.2 C 58.751,49 60,47.751 60,46.2 V 15.8 C 60,14.249 58.751,13 57.2,13 H 32 C 27.8,13 26.4,7 22.2,7 H 6.8 C 5.2488,7 4,8.2488 4,9.8"/>
 <rect style="opacity:0.2" width="56" height="36" x="4" y="20" rx="2.8" ry="2.8"/>
 <rect style="fill:#fae7b3" width="48" height="22" x="8" y="16" rx="2.8" ry="2.8"/>
 <rect style="fill:#e9b143" width="56" height="36" x="4" y="21" rx="2.8" ry="2.8"/>
 <path style="opacity:0.1;fill:#fae7b3" d="M 6.8008,7 C 5.2496,7 4,8.2496 4,9.8008 V 10.801 C 4,9.2496 5.2496,8 6.8008,8 H 22.199 C 26.399,8 27.8,14 32,14 H 57.199 C 58.75,14 60,15.25 60,16.801 V 15.801 C 60,14.25 58.75,13 57.199,13 H 32 C 27.8,13 26.399,7 22.199,7 Z"/>
 <path style="fill:#4f422e" d="M 32 27 A 12 12 0 0 0 20 39 A 12 12 0 0 0 32 51 L 57 51 L 57 49 L 38.619141 49 L 32 49 A 10 10 0 0 1 22 39 A 10 10 0 0 1 32 29 L 32 27 z M 32 30 C 27.029437 30 23 34.029437 23 39 C 23 43.970563 27.029437 48 32 48 L 57 48 L 57 46 L 32 46 C 28.134007 46 25 42.865993 25 39 C 25 35.134007 28.134007 32 32 32 C 33.038472 32.0032 34.063232 32.23733 35 32.685547 L 35 30.525391 C 34.03711 30.1811 33.022586 30.003427 32 30 z M 32 33 A 6 6 0 0 0 26 39 A 6 6 0 0 0 32 45 L 57 45 L 57 43 L 32 43 A 4 4 0 0 1 28 39 A 4 4 0 0 1 32 35 A 4 4 0 0 1 35.458984 37 L 37.648438 37 A 6 6 0 0 0 32 33 z"/>
</svg>
